X:2836
T:Polonäs
T:ur Kumlins notsamling (nr 65)
B:Kumlins notsamling, nr 65
B:http://www.smus.se/earkiv/fmk/browselarge.php?lang=sw&katalogid=Ma+4&bildnr=00023
O:Närke
R:Slängpolska
Z:Nils Liberg
M:3/4
L:1/16
K:F
F4 A2cA B2GB | AGFE F2C2 A,2C2 | F4 A2cA B2GB | AGFE G4 F4 ::
cBAB cBAB cd_ec | dcBA B2B,2 B,4 | dc=Bc dcBc defd | edc=B c2C2 C4 |
gfef gfef gabg | agfe fefg f4 | fefg f2c2 d2B2 | AGFE G4 F4 :|
(:musicend:)
(:music:)
